Newaita-dark/.places-default/16/folder-saved-search.svg

<svg xmlns="http://www.w3.org/2000/svg" xmlns:xlink="http://www.w3.org/1999/xlink" width="16px" height="16px" viewBox="0 0 16 16" version="1.1">
<defs>
<linearGradient id="linear0" gradientUnits="userSpaceOnUse" x1="254" y1="233.5" x2="254" y2="254.667007" gradientTransform="matrix(0.0312525,0,0,0.0312525,0,6.7195)">
<stop offset="0" style="stop-color:rgb(0%,0%,0%);stop-opacity:0.275;"/>
<stop offset="1" style="stop-color:rgb(0%,0%,0%);stop-opacity:0;"/>
</linearGradient>
<radialGradient id="radial0" gradientUnits="userSpaceOnUse" cx="450.908997" cy="189.578995" fx="450.908997" fy="189.578995" r="21.167" gradientTransform="matrix(0,-0.039065,-0.07032,0,27.057501,31.797501)">
<stop offset="0" style="stop-color:rgb(0%,0%,0%);stop-opacity:0.314;"/>
<stop offset="0.222" style="stop-color:rgb(0%,0%,0%);stop-opacity:0.275;"/>
<stop offset="1" style="stop-color:rgb(0%,0%,0%);stop-opacity:0;"/>
</radialGradient>
<radialGradient id="radial1" gradientUnits="userSpaceOnUse" cx="450.908997" cy="189.578995" fx="450.908997" fy="189.578995" r="21.167" gradientTransform="matrix(0,0.039065,0.07032,0,-11.181,-3.76375)">
<stop offset="0" style="stop-color:rgb(0%,0%,0%);stop-opacity:0.314;"/>
<stop offset="0.222" style="stop-color:rgb(0%,0%,0%);stop-opacity:0.275;"/>
<stop offset="1" style="stop-color:rgb(0%,0%,0%);stop-opacity:0;"/>
</radialGradient>
<radialGradient id="radial2" gradientUnits="userSpaceOnUse" cx="450.908997" cy="189.578995" fx="450.908997" fy="189.578995" r="21.167" gradientTransform="matrix(0,-0.039065,0.07032,0,-11.181,31.797501)">
<stop offset="0" style="stop-color:rgb(0%,0%,0%);stop-opacity:0.314;"/>
<stop offset="0.222" style="stop-color:rgb(0%,0%,0%);stop-opacity:0.275;"/>
<stop offset="1" style="stop-color:rgb(0%,0%,0%);stop-opacity:0;"/>
</radialGradient>
<radialGradient id="radial3" gradientUnits="userSpaceOnUse" cx="450.908997" cy="189.578995" fx="450.908997" fy="189.578995" r="21.167" gradientTransform="matrix(0,0.039065,-0.07032,0,27.057501,-3.76375)">
<stop offset="0" style="stop-color:rgb(0%,0%,0%);stop-opacity:0.314;"/>
<stop offset="0.222" style="stop-color:rgb(0%,0%,0%);stop-opacity:0.275;"/>
<stop offset="1" style="stop-color:rgb(0%,0%,0%);stop-opacity:0;"/>
</radialGradient>
<linearGradient id="linear1" gradientUnits="userSpaceOnUse" x1="254" y1="-147.5" x2="254" y2="-31.083" gradientTransform="matrix(0.0312525,0,0,0.0312525,0,6.7195)">
<stop offset="0" style="stop-color:rgb(64.313728%,64.313728%,64.313728%);stop-opacity:0;"/>
<stop offset="1" style="stop-color:rgb(100%,100%,100%);stop-opacity:0.196;"/>
</linearGradient>
<linearGradient id="linear2" gradientUnits="userSpaceOnUse" x1="254" y1="233.5" x2="254" y2="-105.167" gradientTransform="matrix(0.0312525,0,0,0.0312525,0,6.7195)">
<stop offset="0" style="stop-color:rgb(34.509805%,34.509805%,34.509805%);stop-opacity:0;"/>
<stop offset="1" style="stop-color:rgb(98.039216%,98.039216%,98.039216%);stop-opacity:0.196;"/>
</linearGradient>
<linearGradient id="linear3" gradientUnits="userSpaceOnUse" x1="254" y1="-147.5" x2="254" y2="233.5" gradientTransform="matrix(1,0,0,1,0,0.000000000000028422)">
<stop offset="0" style="stop-color:rgb(64.313728%,64.313728%,64.313728%);stop-opacity:0;"/>
<stop offset="1" style="stop-color:rgb(100%,100%,100%);stop-opacity:0.196;"/>
</linearGradient>
</defs>
<g id="surface1">
<path style=" stroke:none;fill-rule:nonzero;fill:url(#linear0);" d="M 1.984375 14.015625 L 13.890625 14.015625 L 13.890625 14.679688 L 1.984375 14.679688 Z M 1.984375 14.015625 "/>
<path style=" stroke:none;fill-rule:nonzero;fill:url(#radial0);" d="M 13.890625 14.015625 L 15.214844 14.015625 L 15.214844 13.355469 L 13.890625 13.355469 Z M 13.890625 14.015625 "/>
<path style=" stroke:none;fill-rule:nonzero;fill:url(#radial1);" d="M 1.984375 14.015625 L 0.660156 14.015625 L 0.660156 14.679688 L 1.984375 14.679688 Z M 1.984375 14.015625 "/>
<path style=" stroke:none;fill-rule:nonzero;fill:url(#radial2);" d="M 1.984375 14.015625 L 0.660156 14.015625 L 0.660156 13.355469 L 1.984375 13.355469 Z M 1.984375 14.015625 "/>
<path style=" stroke:none;fill-rule:nonzero;fill:url(#radial3);" d="M 13.890625 14.015625 L 15.214844 14.015625 L 15.214844 14.679688 L 13.890625 14.679688 Z M 13.890625 14.015625 "/>
<path style=" stroke:none;fill-rule:nonzero;fill:rgb(55.29412%,43.137255%,38.82353%);fill-opacity:1;" d="M 3.640625 2.109375 L 14.386719 2.109375 C 14.5625 2.109375 14.730469 2.179688 14.855469 2.304688 C 14.980469 2.425781 15.050781 2.597656 15.050781 2.773438 L 15.050781 5.253906 C 15.050781 5.617188 14.753906 5.914062 14.386719 5.914062 L 3.640625 5.914062 C 3.273438 5.914062 2.976562 5.617188 2.976562 5.253906 L 2.976562 2.773438 C 2.976562 2.40625 3.273438 2.109375 3.640625 2.109375 Z M 3.640625 2.109375 "/>
<path style=" stroke:none;fill-rule:nonzero;fill:url(#linear1);" d="M 3.640625 2.109375 L 14.386719 2.109375 C 14.5625 2.109375 14.730469 2.179688 14.855469 2.304688 C 14.980469 2.425781 15.050781 2.597656 15.050781 2.773438 L 15.050781 5.253906 C 15.050781 5.617188 14.753906 5.914062 14.386719 5.914062 L 3.640625 5.914062 C 3.273438 5.914062 2.976562 5.617188 2.976562 5.253906 L 2.976562 2.773438 C 2.976562 2.40625 3.273438 2.109375 3.640625 2.109375 Z M 3.640625 2.109375 "/>
<path style=" stroke:none;fill-rule:nonzero;fill:rgb(90.196079%,90.196079%,90.196079%);fill-opacity:0.588;" d="M 3.640625 2.109375 C 3.464844 2.109375 3.292969 2.179688 3.167969 2.300781 C 3.046875 2.425781 2.976562 2.597656 2.976562 2.773438 L 2.976562 2.851562 C 2.976562 2.679688 3.046875 2.507812 3.171875 2.386719 C 3.292969 2.261719 3.464844 2.191406 3.640625 2.191406 L 14.386719 2.191406 C 14.5625 2.191406 14.730469 2.261719 14.855469 2.386719 C 14.980469 2.507812 15.050781 2.679688 15.050781 2.851562 L 15.050781 2.773438 C 15.050781 2.597656 14.980469 2.425781 14.855469 2.300781 C 14.730469 2.179688 14.5625 2.109375 14.386719 2.109375 Z M 3.640625 2.109375 "/>
<path style=" stroke:none;fill-rule:nonzero;fill:rgb(12.941177%,12.941177%,12.941177%);fill-opacity:1;" d="M 3.640625 2.0625 C 3.246094 2.0625 2.929688 2.378906 2.929688 2.773438 L 2.929688 5.253906 C 2.929688 5.441406 3.003906 5.621094 3.136719 5.753906 C 3.269531 5.886719 3.449219 5.960938 3.640625 5.960938 L 14.386719 5.960938 C 14.574219 5.960938 14.753906 5.886719 14.890625 5.753906 C 15.023438 5.621094 15.097656 5.441406 15.097656 5.253906 L 15.097656 2.773438 C 15.097656 2.378906 14.777344 2.0625 14.386719 2.0625 Z M 3.640625 2.15625 L 14.386719 2.15625 C 14.550781 2.15625 14.707031 2.21875 14.824219 2.335938 C 14.9375 2.449219 15.003906 2.609375 15.003906 2.769531 L 15.003906 5.253906 C 15.003906 5.414062 14.9375 5.570312 14.824219 5.6875 C 14.707031 5.800781 14.550781 5.867188 14.386719 5.867188 L 3.640625 5.867188 C 3.476562 5.867188 3.320312 5.800781 3.203125 5.6875 C 3.085938 5.570312 3.023438 5.414062 3.023438 5.253906 L 3.023438 2.773438 C 3.023438 2.609375 3.085938 2.453125 3.203125 2.335938 C 3.316406 2.21875 3.476562 2.15625 3.636719 2.15625 Z M 3.640625 2.15625 "/>
<path style=" stroke:none;fill-rule:nonzero;fill:rgb(73.725492%,66.666669%,64.313728%);fill-opacity:1;" d="M 1.324219 3.433594 C 1.148438 3.433594 0.980469 3.5 0.855469 3.625 C 0.730469 3.75 0.660156 3.917969 0.660156 4.09375 L 0.660156 13.355469 C 0.660156 13.53125 0.730469 13.699219 0.855469 13.824219 C 0.980469 13.949219 1.148438 14.015625 1.324219 14.015625 L 14.554688 14.015625 C 14.730469 14.015625 14.898438 13.949219 15.023438 13.824219 C 15.144531 13.699219 15.214844 13.53125 15.214844 13.355469 L 15.214844 5.085938 L 6.285156 5.085938 C 6.109375 5.085938 5.941406 5.015625 5.816406 4.894531 C 5.691406 4.769531 5.621094 4.601562 5.621094 4.425781 L 5.621094 3.433594 Z M 1.324219 3.433594 "/>
<path style=" stroke:none;fill-rule:nonzero;fill:url(#linear2);" d="M 1.324219 3.433594 C 1.148438 3.433594 0.980469 3.5 0.855469 3.625 C 0.730469 3.75 0.660156 3.917969 0.660156 4.09375 L 0.660156 13.355469 C 0.660156 13.53125 0.730469 13.699219 0.855469 13.824219 C 0.980469 13.949219 1.148438 14.015625 1.324219 14.015625 L 14.554688 14.015625 C 14.730469 14.015625 14.898438 13.949219 15.023438 13.824219 C 15.144531 13.699219 15.214844 13.53125 15.214844 13.355469 L 15.214844 5.085938 L 6.285156 5.085938 C 6.109375 5.085938 5.941406 5.015625 5.816406 4.894531 C 5.691406 4.769531 5.621094 4.601562 5.621094 4.425781 L 5.621094 3.433594 Z M 1.324219 3.433594 "/>
<path style=" stroke:none;fill-rule:nonzero;fill:rgb(0%,0%,0%);fill-opacity:0.196;" d="M 1.324219 14.015625 C 1.148438 14.015625 0.980469 13.949219 0.855469 13.824219 C 0.730469 13.699219 0.660156 13.53125 0.660156 13.355469 L 0.660156 13.273438 C 0.660156 13.449219 0.730469 13.617188 0.855469 13.742188 C 0.980469 13.863281 1.148438 13.933594 1.324219 13.933594 L 14.554688 13.933594 C 14.730469 13.933594 14.898438 13.863281 15.023438 13.742188 C 15.144531 13.617188 15.214844 13.449219 15.214844 13.273438 L 15.214844 13.355469 C 15.214844 13.53125 15.144531 13.699219 15.023438 13.824219 C 14.898438 13.949219 14.730469 14.015625 14.554688 14.015625 Z M 1.324219 14.015625 "/>
<path style=" stroke:none;fill-rule:nonzero;fill:rgb(90.196079%,90.196079%,90.196079%);fill-opacity:0.937;" d="M 1.324219 3.433594 C 1.148438 3.433594 0.980469 3.5 0.855469 3.625 C 0.730469 3.75 0.660156 3.917969 0.660156 4.09375 L 0.660156 4.175781 C 0.660156 4 0.730469 3.832031 0.855469 3.707031 C 0.980469 3.585938 1.148438 3.515625 1.324219 3.515625 L 5.625 3.515625 L 5.625 3.433594 Z M 6.242188 5.128906 C 6.066406 5.128906 5.898438 5.058594 5.773438 4.933594 C 5.652344 4.808594 5.582031 4.640625 5.582031 4.464844 L 5.582031 4.382812 C 5.582031 4.558594 5.652344 4.726562 5.773438 4.851562 C 5.898438 4.976562 6.066406 5.046875 6.242188 5.046875 L 15.214844 5.046875 L 15.214844 5.128906 Z M 6.242188 5.128906 "/>
<path style=" stroke:none;fill-rule:nonzero;fill:rgb(12.941177%,12.941177%,12.941177%);fill-opacity:1;" d="M 1.324219 3.386719 C 1.136719 3.386719 0.953125 3.460938 0.820312 3.59375 C 0.6875 3.726562 0.613281 3.90625 0.613281 4.09375 L 0.613281 13.355469 C 0.613281 13.542969 0.6875 13.722656 0.820312 13.855469 C 0.953125 13.988281 1.136719 14.0625 1.324219 14.0625 L 14.554688 14.0625 C 14.742188 14.0625 14.921875 13.988281 15.054688 13.855469 C 15.1875 13.722656 15.261719 13.542969 15.261719 13.355469 L 15.261719 4.992188 L 6.285156 4.992188 C 6.121094 4.992188 5.964844 4.929688 5.847656 4.8125 C 5.734375 4.699219 5.667969 4.542969 5.671875 4.378906 L 5.671875 3.386719 Z M 1.324219 3.480469 L 5.578125 3.480469 L 5.578125 4.378906 C 5.574219 4.566406 5.652344 4.746094 5.785156 4.878906 C 5.917969 5.011719 6.097656 5.085938 6.285156 5.085938 L 15.167969 5.085938 L 15.167969 13.355469 C 15.167969 13.519531 15.105469 13.675781 14.988281 13.789062 C 14.875 13.90625 14.71875 13.96875 14.554688 13.96875 L 1.324219 13.96875 C 1.160156 13.96875 1.003906 13.90625 0.886719 13.789062 C 0.773438 13.675781 0.707031 13.519531 0.707031 13.355469 L 0.707031 4.09375 C 0.707031 3.929688 0.773438 3.773438 0.886719 3.660156 C 1.003906 3.542969 1.160156 3.480469 1.324219 3.480469 Z M 1.324219 3.480469 "/>
<path style=" stroke:none;fill-rule:nonzero;fill:rgb(55.29412%,43.137255%,38.82353%);fill-opacity:1;" d="M 7.441406 6.410156 C 6.914062 6.40625 6.410156 6.617188 6.039062 6.988281 C 5.664062 7.363281 5.457031 7.867188 5.457031 8.394531 C 5.457031 8.921875 5.664062 9.425781 6.039062 9.796875 C 6.410156 10.171875 6.914062 10.378906 7.441406 10.378906 C 7.824219 10.378906 8.175781 10.273438 8.476562 10.089844 L 8.820312 10.484375 C 8.683594 10.601562 8.667969 10.808594 8.789062 10.949219 L 9.332031 11.570312 C 9.453125 11.710938 9.660156 11.726562 9.796875 11.605469 L 10.296875 11.171875 C 10.433594 11.050781 10.449219 10.839844 10.332031 10.703125 L 9.785156 10.078125 C 9.667969 9.941406 9.457031 9.925781 9.320312 10.046875 L 8.976562 9.652344 C 9.269531 9.300781 9.429688 8.851562 9.425781 8.394531 C 9.429688 7.867188 9.21875 7.363281 8.847656 6.988281 C 8.472656 6.617188 7.96875 6.40625 7.441406 6.410156 Z M 7.441406 7.070312 C 8.175781 7.070312 8.765625 7.660156 8.765625 8.394531 C 8.765625 8.746094 8.628906 9.082031 8.378906 9.328125 C 8.128906 9.578125 7.792969 9.71875 7.441406 9.714844 C 7.089844 9.71875 6.753906 9.578125 6.507812 9.332031 C 6.257812 9.082031 6.117188 8.746094 6.121094 8.394531 C 6.121094 7.660156 6.710938 7.070312 7.441406 7.070312 Z M 7.441406 7.070312 "/>
<path style="fill-rule:nonzero;fill:url(#linear3);stroke-width:3;stroke-linecap:butt;stroke-linejoin:miter;stroke:rgb(12.941177%,12.941177%,12.941177%);stroke-opacity:1;stroke-miterlimit:4;" d="M 238.105954 -9.89821 C 202.983763 -9.89821 174.611033 18.47452 174.611033 53.596711 C 174.611033 88.718901 202.983763 117.091632 238.105954 117.091632 C 250.229984 117.091632 261.604074 113.716902 271.228305 107.842372 L 282.227425 120.466362 C 277.852775 124.216062 277.352815 130.965522 281.227505 135.340172 L 298.601115 155.338572 C 300.475965 157.463403 303.100755 158.713303 305.850535 158.963283 C 308.600315 159.088273 311.475085 158.213343 313.474925 156.338492 L 329.473646 142.464602 C 333.848296 138.589912 334.348256 131.965442 330.473566 127.465802 L 313.099955 107.592392 C 309.350255 103.092752 302.600795 102.717782 298.226145 106.467482 L 287.227025 93.968481 C 296.226305 82.969361 301.600875 68.970481 301.600875 53.596711 C 301.600875 18.47452 273.353135 -9.89821 238.105954 -9.89821 Z M 238.105954 11.2251 C 261.604074 11.2251 280.477565 30.09859 280.477565 53.596711 C 280.477565 77.094831 261.604074 95.968321 238.105954 95.968321 C 226.856854 95.968321 216.107714 91.468681 208.108354 83.594311 C 200.233983 75.594951 195.734343 64.845811 195.734343 53.596711 C 195.734343 30.09859 214.607834 11.2251 238.105954 11.2251 Z M 238.105954 11.2251 " transform="matrix(0.0312525,0,0,0.0312525,0,6.7195)"/>
</g>
</svg>

<svg xmlns="http://www.w3.org/2000/svg" width="16pt" height="16pt" viewBox="0 0 16 16"><defs><linearGradient id="a" gradientUnits="userSpaceOnUse" x1="254" y1="233.5" x2="254" y2="254.667" gradientTransform="matrix(.03125 0 0 .03125 0 6.72)"><stop offset="0" stop-opacity=".275"/><stop offset="1" stop-opacity="0"/></linearGradient><radialGradient id="b" gradientUnits="userSpaceOnUse" cx="450.909" cy="189.579" fx="450.909" fy="189.579" r="21.167" gradientTransform="matrix(0 -.03907 -.07032 0 27.058 31.798)"><stop offset="0" stop-opacity=".314"/><stop offset=".222" stop-opacity=".275"/><stop offset="1" stop-opacity="0"/></radialGradient><radialGradient id="c" gradientUnits="userSpaceOnUse" cx="450.909" cy="189.579" fx="450.909" fy="189.579" r="21.167" gradientTransform="matrix(0 .03907 .07032 0 -11.181 -3.764)"><stop offset="0" stop-opacity=".314"/><stop offset=".222" stop-opacity=".275"/><stop offset="1" stop-opacity="0"/></radialGradient><radialGradient id="d" gradientUnits="userSpaceOnUse" cx="450.909" cy="189.579" fx="450.909" fy="189.579" r="21.167" gradientTransform="matrix(0 -.03907 .07032 0 -11.181 31.798)"><stop offset="0" stop-opacity=".314"/><stop offset=".222" stop-opacity=".275"/><stop offset="1" stop-opacity="0"/></radialGradient><radialGradient id="e" gradientUnits="userSpaceOnUse" cx="450.909" cy="189.579" fx="450.909" fy="189.579" r="21.167" gradientTransform="matrix(0 .03907 -.07032 0 27.058 -3.764)"><stop offset="0" stop-opacity=".314"/><stop offset=".222" stop-opacity=".275"/><stop offset="1" stop-opacity="0"/></radialGradient><linearGradient id="f" gradientUnits="userSpaceOnUse" x1="254" y1="-147.5" x2="254" y2="-31.083" gradientTransform="matrix(.03125 0 0 .03125 0 6.72)"><stop offset="0" stop-color="#a4a4a4" stop-opacity="0"/><stop offset="1" stop-color="#fff" stop-opacity=".196"/></linearGradient><linearGradient id="g" gradientUnits="userSpaceOnUse" x1="254" y1="233.5" x2="254" y2="-105.167" gradientTransform="matrix(.03125 0 0 .03125 0 6.72)"><stop offset="0" stop-color="#585858" stop-opacity="0"/><stop offset="1" stop-color="#fafafa" stop-opacity=".196"/></linearGradient><linearGradient id="h" gradientUnits="userSpaceOnUse" x1="254" y1="-147.5" x2="254" y2="233.5"><stop offset="0" stop-color="#a4a4a4" stop-opacity="0"/><stop offset="1" stop-color="#fff" stop-opacity=".196"/></linearGradient></defs><path d="M1.984 14.016h11.907v.664H1.984zm0 0" fill="url(#a)"/><path d="M13.89 14.016h1.325v-.66H13.89zm0 0" fill="url(#b)"/><path d="M1.984 14.016H.66v.664h1.324zm0 0" fill="url(#c)"/><path d="M1.984 14.016H.66v-.66h1.324zm0 0" fill="url(#d)"/><path d="M13.89 14.016h1.325v.664H13.89zm0 0" fill="url(#e)"/><path d="M3.637 2.11h10.75c.367 0 .664.296.664.66v2.48a.664.664 0 0 1-.664.664H3.637a.663.663 0 0 1-.66-.664V2.77c0-.364.296-.66.66-.66zm0 0" fill="#8d6e63"/><path d="M3.637 2.11h10.75c.367 0 .664.296.664.66v2.48a.664.664 0 0 1-.664.664H3.637a.663.663 0 0 1-.66-.664V2.77c0-.364.296-.66.66-.66zm0 0" fill="url(#f)"/><path d="M3.637 2.11a.662.662 0 0 0-.66.66v.085c0-.367.296-.664.66-.664h10.75c.367 0 .664.297.664.664V2.77a.663.663 0 0 0-.664-.66zm0 0" fill="#e6e6e6" fill-opacity=".588"/><path d="M3.637 2.063a.707.707 0 0 0-.707.707v2.48c0 .395.316.71.707.71h10.75c.394 0 .71-.315.71-.71V2.77a.708.708 0 0 0-.71-.708zm0 .093h10.75c.343 0 .617.274.617.614v2.48a.614.614 0 0 1-.617.617H3.637a.613.613 0 0 1-.614-.617V2.77c0-.34.274-.614.614-.614zm0 0" fill="#212121"/><path d="M1.324 3.434a.66.66 0 0 0-.664.66v9.261c0 .368.297.66.664.66h13.23c.368 0 .66-.292.66-.66v-8.27H6.286a.66.66 0 0 1-.664-.66v-.991zm0 0" fill="#bcaaa4"/><path d="M1.324 3.434a.66.66 0 0 0-.664.66v9.261c0 .368.297.66.664.66h13.23c.368 0 .66-.292.66-.66v-8.27H6.286a.66.66 0 0 1-.664-.66v-.991zm0 0" fill="url(#g)"/><path d="M1.324 14.016a.66.66 0 0 1-.664-.66v-.083c0 .368.297.66.664.66h13.23c.368 0 .66-.292.66-.66v.082c0 .368-.292.66-.66.66zm0 0" fill-opacity=".196"/><path d="M1.324 3.434a.66.66 0 0 0-.664.66v.082a.66.66 0 0 1 .664-.66h4.297v-.082zm0 0M6.242 5.129a.66.66 0 0 1-.66-.664v-.082a.66.66 0 0 0 .66.664h8.973v.082zm0 0" fill="#e6e6e6" fill-opacity=".937"/><path d="M1.324 3.387a.708.708 0 0 0-.71.707v9.261c0 .391.316.707.71.707h13.23c.391 0 .708-.316.708-.707V4.992H6.285a.613.613 0 0 1-.617-.613v-.992zm0 .093h4.25v.899c0 .39.32.707.711.707h8.883v8.27c0 .34-.273.613-.613.613H1.325a.613.613 0 0 1-.618-.614V4.094c0-.34.273-.614.617-.614zm0 0" fill="#212121"/><path d="M7.441 6.41a1.98 1.98 0 0 0-1.984 1.985c0 1.097.887 1.984 1.984 1.984.383 0 .735-.106 1.04-.29l.34.391a.333.333 0 0 0-.032.47l.543.624a.333.333 0 0 0 .469.031l.496-.433a.33.33 0 0 0 .031-.469l-.543-.621a.325.325 0 0 0-.465-.035l-.343-.395c.28-.34.449-.777.449-1.257A1.977 1.977 0 0 0 7.44 6.41zm0 .66c.735 0 1.325.59 1.325 1.325A1.32 1.32 0 0 1 7.44 9.719c-.73 0-1.324-.59-1.324-1.324 0-.735.594-1.325 1.324-1.325zm0 0" fill="#8d6e63"/><path d="M238.102-9.895c-35.121 0-63.494 28.248-63.494 63.494 0 35.122 28.373 63.494 63.494 63.494 12.25 0 23.498-3.374 33.247-9.249l10.874 12.499c-4.375 3.875-4.874 10.624-1 14.999l17.373 19.998a10.656 10.656 0 0 0 15 1l15.873-13.874c4.5-3.875 4.874-10.5 1-14.999l-17.374-19.873c-3.75-4.5-10.499-5-14.873-1.125l-11-12.623c9-10.874 14.374-24.873 14.374-40.247a63.265 63.265 0 0 0-63.494-63.494zm0 21.123A42.247 42.247 0 0 1 280.473 53.6a42.247 42.247 0 0 1-42.37 42.371c-23.374 0-42.372-18.873-42.372-42.37 0-23.498 18.998-42.372 42.371-42.372zm0 0" transform="matrix(.03125 0 0 .03125 0 6.72)" fill="url(#h)" stroke-width="3" stroke="#212121"/></svg>
